src/assets/icons/arrow_right--black.svg

<?xml version="1.0" encoding="UTF-8"?>
<svg width="15px" height="9px" viewBox="0 0 15 9" version="1.1" xmlns="http://www.w3.org/2000/svg" xmlns:xlink="http://www.w3.org/1999/xlink">
    <!-- Generator: Sketch 53.2 (72643) - https://sketchapp.com -->
    <title>arrow</title>
    <desc>Created with Sketch.</desc>
    <g id="Symbols" stroke="none" stroke-width="1" fill="none" fill-rule="evenodd">
        <g id="arrow_circled" transform="translate(-10.000000, -14.000000)" fill="#000000">
            <g id="arrow" transform="translate(10.000000, 14.000000)">
                <path d="M0.625,3.85785533 L12.85,3.85785533 L10.2,1.11125635 C9.8875,0.818794419 9.875,0.52633249 10.175,0.221154825 C10.475,-0.0840228396 10.7625,-0.0713071036 11.05,0.246586297 L14.8,4.06130711 C14.875,4.11217005 14.925,4.17574873 14.95,4.26475888 C14.9875,4.3410533 15,4.41734772 15,4.49364213 C15,4.56993655 14.9875,4.64623096 14.9625,4.73524112 C14.9375,4.81153553 14.8875,4.87511421 14.8125,4.93869289 L11.0625,8.7534137 C10.775,9.0713071 10.4875,9.08402284 10.1875,8.77884517 C9.8875,8.47366751 9.9,8.18120558 10.2125,7.88874365 L12.85,5.12942893 L0.625,5.12942893 C0.4375,5.12942893 0.2875,5.06585025 0.175,4.95140863 C0.0625,4.836967 0,4.68437817 0,4.49364213 C0,4.30290609 0,4.21389594 0,4.21389594 C0,4.21389594 0.0625,4.15031726 0.175,4.03587563 C0.2875,3.92143401 0.4375,3.85785533 0.625,3.85785533 Z"></path>
            </g>
        </g>
    </g>
</svg>

<svg width="15" height="9" xmlns="http://www.w3.org/2000/svg"><path d="M.625 3.858H12.85L10.2 1.11c-.313-.292-.325-.585-.025-.89.3-.305.587-.292.875.026L14.8 4.06a.35.35 0 0 1 .15.204c.038.076.05.152.05.229a.878.878 0 0 1-.037.241.453.453 0 0 1-.15.204l-3.75 3.814c-.288.318-.575.331-.876.026-.3-.305-.287-.598.026-.89l2.637-2.76H.625a.607.607 0 0 1-.45-.178A.629.629 0 0 1 0 4.494v-.28l.175-.178a.607.607 0 0 1 .45-.178z" fill-rule="evenodd"/></svg>
